**kern
*staff1
!!pagebreak:original
*I"P1
=1-
*clefG2
*k[b-e-a-]
*M3/8
8e-/L
8g/
8b-/J
=2
8B-/L
16B-/L
16c/
16d/
16B-/JJ
=3
8e-/L
8g/
8b-/J
=4
4.B-/
=5
4.aa-\
=6
4.gg\
=7
8ff\L
16aa-\L
16gg\
16ff\
16ee-\JJ
=8
16dd\LL
16ee-\
16ff\
16dd\J
8b-\J
*-
